packages/icons/svg/invalid.svg

<svg width="24" height="24" viewBox="0 0 24 24" fill="none" xmlns="http://www.w3.org/2000/svg">
<path fill-rule="evenodd" clip-rule="evenodd" d="M5.67135 4.25672C9.59957 1.03822 15.4051 1.26235 19.0719 4.92911C22.7386 8.59586 22.9628 14.4014 19.7443 18.3296L5.67135 4.25672ZM4.2571 5.6709C1.0382 9.59912 1.26221 15.405 4.92911 19.0719C8.59601 22.7388 14.4019 22.9628 18.3301 19.7439L4.2571 5.6709ZM20.4689 20.5033C15.781 25.1726 8.19569 25.1669 3.51489 20.4861C-1.17163 15.7996 -1.17163 8.20142 3.51489 3.51489C8.20142 -1.17163 15.7996 -1.17163 20.4861 3.51489C25.1667 8.19554 25.1726 15.7805 20.5037 20.4685C20.4981 20.4744 20.4923 20.4803 20.4865 20.4861C20.4807 20.4919 20.4748 20.4976 20.4689 20.5033Z" fill="black"/>
</svg>

<svg xmlns="http://www.w3.org/2000/svg" viewBox="0 0 24 24">
    <path fill-rule="evenodd" d="M5.671 4.257c3.928-3.219 9.733-2.995 13.4.672 3.667 3.667 3.89 9.472.672 13.4L5.672 4.257zM4.257 5.67c-3.219 3.928-2.995 9.733.672 13.4 3.667 3.667 9.472 3.89 13.4.672L4.257 5.671zm16.211 14.831c-4.688 4.67-12.273 4.664-16.953-.017-4.687-4.686-4.687-12.284 0-16.97 4.686-4.687 12.284-4.687 16.97 0 4.68 4.68 4.687 12.265.018 16.953a1.428 1.428 0 0 1-.035.034z" clip-rule="evenodd"/>
</svg>
